assets/rubymine.svg

<?xml version="1.0" encoding="utf-8"?>
<!-- Generator: Adobe Illustrator 22.1.0, SVG Export Plug-In . SVG Version: 6.00 Build 0)  -->
<svg version="1.1" id="Layer_1" xmlns="http://www.w3.org/2000/svg" xmlns:xlink="http://www.w3.org/1999/xlink" x="0px" y="0px"
	 viewBox="0 0 70 70" style="enable-background:new 0 0 70 70;" xml:space="preserve">
<style type="text/css">
	.st0{fill:#FFFFFF;}
</style>
<g>
	<path d="M13.4,13.4h43.2v43.2H13.4V13.4z"/>
	<path class="st0" d="M17.5,48.5h16.2v2.7H17.5V48.5z"/>
	<path class="st0" d="M34.6,19h4.3l4.7,7.6l4.7-7.6h4.3v17.9h-4V25.2l-5,7.7h-0.1l-5-7.6v11.6h-3.9V19z"/>
	<path class="st0" d="M17.4,19h8.2c2.3,0,4,0.6,5.2,1.8c1,1,1.5,2.4,1.5,4.1V25c0,1.5-0.4,2.6-1.1,3.5s-1.6,1.6-2.8,2l4.4,6.4h-4.6
		l-3.7-5.5h-3.3v5.5h-3.9V19H17.4z M25.4,27.7c1,0,1.7-0.2,2.2-0.7s0.8-1.1,0.8-1.8v-0.1c0-0.9-0.3-1.5-0.8-1.9s-1.3-0.6-2.3-0.6
		h-3.9v5.1H25.4z"/>
</g>
</svg>

<svg version="1.1" xmlns="http://www.w3.org/2000/svg" x="0" y="0" width="70" height="70" viewBox="0 0 70 70" xml:space="preserve"><linearGradient id="a" gradientUnits="userSpaceOnUse" x1="49.609" y1="52.554" x2="30.346" y2="7.163"><stop offset=".172" stop-color="#FF1F51"/><stop offset=".28" stop-color="#FF3648"/><stop offset=".468" stop-color="#FF593B"/><stop offset=".646" stop-color="#FF7231"/><stop offset=".809" stop-color="#FF812B"/><stop offset=".941" stop-color="#FF8629"/></linearGradient><path fill="url(#a)" d="M58.2 0L38.2 7.2 22.4 0 6.9 38.9 24.7 31.8 24.4 51.5 62.5 52.2 70 13.7z"/><linearGradient id="b" gradientUnits="userSpaceOnUse" x1="33.259" y1="12.887" x2="25.105" y2="33.436"><stop offset=".022" stop-color="#9039D0"/><stop offset=".629" stop-color="#FF1F51"/></linearGradient><path fill="url(#b)" d="M50.8 22.7L25.6 6.2 5.3 18.7 49.8 35.9z"/><linearGradient id="c" gradientUnits="userSpaceOnUse" x1=".29" y1="11.224" x2="45.284" y2="68.42"><stop offset=".107" stop-color="#9039D0"/><stop offset=".387" stop-color="#FF1F51"/><stop offset=".629" stop-color="#FF1F51"/><stop offset=".66" stop-color="#FF3648"/><stop offset=".714" stop-color="#FF593B"/><stop offset=".765" stop-color="#FF7231"/><stop offset=".812" stop-color="#FF812B"/><stop offset=".85" stop-color="#FF8629"/></linearGradient><path fill="url(#c)" d="M29.1 68.2L55.3 64.7 47 48.7 52.5 42 53.1 37.9 25.6 6.1 0 12.4 0 49.1 14.8 70 29.1 68.2 29.1 68.2 29.1 68.2 29.1 68.2z"/><g><path fill="#000" d="M13.4 13.4H56.6V56.6H13.4z"/><path fill="#FFF" d="M17.5 48.5H33.7V51.2H17.5z"/><path fill="#FFF" d="M34.6 19L38.9 19 43.6 26.6 48.3 19 52.6 19 52.6 36.9 48.6 36.9 48.6 25.2 43.6 32.9 43.5 32.9 38.5 25.3 38.5 36.9 34.6 36.9z"/><path d="M17.4,19h8.2c2.3,0,4,0.6,5.2,1.8c1,1,1.5,2.4,1.5,4.1v0.1c0,1.5-0.4,2.6-1.1,3.5 c-0.7,0.9-1.6,1.6-2.8,2l4.4,6.4h-4.6l-3.7-5.5h-3.3l0,5.5h-3.9V19z M25.4,27.7c1,0,1.7-0.2,2.2-0.7c0.5-0.5,0.8-1.1,0.8-1.8v-0.1 c0-0.9-0.3-1.5-0.8-1.9c-0.5-0.4-1.3-0.6-2.3-0.6h-3.9v5.1H25.4z" fill="#FFF"/></g></svg>
